X: 42845
T: Wild Geese, The
R: waltz
M: 3/4
K: Gmajor
L:1/4
(G/A/)B(A/G/)|BA(G/E/)|(B/A/)G(E/D/)|(E/F/)G(A/B/)|
c(B/A/) (A/4B/4c/)|BGB|Ae(d/B/)|A2(A/B/)|
c(B/A/) (A/4B/4c/)|BGB|AB (A/G/)|E2(G/A/)|
B(A/G/)B|A(G/E/) (B/A/)|G(E/D/)(E/F/)|G3:|
G3/4A/4B3/4A/4G3/4A/4|B3/4G/4A3/4G/4E3/4F/4|G3/2E/4G3/4E/4D3/4E/4|
(G/A/)G2|A3/4B/4c3/4B/4A3/4B/4|c3/4A/4B3/4A/4G3/4A/4|B/G/Ae|
(c3/4B/4)A2|A3/4B/4c3/4B/4A3/4B/4|c3/4A/4B3/4A/4G3/4A/4|
B/A/GB|(A/G/)E2||(D/E/)G2|(e/d/)c2|(e/d/)c2|(e/d/)B2|
(e/d/)B2|(e/d/)A2|(e/d/)A2|G3/4A/4B3/4A/4G3/4A/4|
B3/4G/4A3/4G/4E3/4F/4|G3/4E/4G3/4E/4D3/4E/4|(G/A/)G2||

